X:1
T:Jauchzet Gott, alle Lande
T:Jauchzet Gott, alle Lande
T:Jakob Heinrich Lützel
T:CPDL   —   Creative Commons Attribution Non Commercial 3.0
T:CPDL   —   Creative Commons Attribution Non Commercial 3.0
T:CPDL   —   Creative Commons Attribution Non Commercial 3.0
T:CPDL   —   Creative Commons Attribution Non Commercial 3.0
T:CPDL   —   Creative Commons Attribution Non Commercial 3.0
T:CPDL   —   Creative Commons Attribution Non Commercial 3.0
C:Jakob Heinrich Lützel
Z:CPDL   —   Creative Commons Attribution Non Commercial 3.0
%%score [ ( 1 2 3 ) 4 5 ]
L:1/8
Q:1/4=90
M:4/4
K:F
V:1 treble nm="S\nA"
V:2 treble 
V:3 treble 
V:4 treble-8 nm="T"
V:5 bass nm="B"
V:1
"^Majestätisch"!f! c6!<(! c2!<)! | f4 d2 d2 |!>(! (c6!>)! B2) | A4 z2 A2 | !>!B4 A2 G2 | %5
w: |Gott, al- le|Lan- *|de, lob-|sin- get zu|
!<(! F3 F B2!<)! B2 |!>(! A8!>)! | G4 z4 |!f!!<(! c6!<)! c2 | f4 e2 d2 |!>(! c8!>)! | c4 z4 | %12
w: Eh- ren sei- nem|Na-|men!|Jauchzt dem|Herrn, al- le|Völ-|ker,|
 A4"^cresc." =B2 B2 | c4 c2 d2 |!f!!>(! (e4!>)! d4) | c4!f! c3 c | c8- | c8- | %18
w: lob- singt und|rüh- met ihn|herr- *|lich! Jauch- zet|Gott!|_|
!>(! !fermata!c8!>)! ||[M:3/4][Q:1/4=100]"^Gemäßigt""^Einzelne"!p!!<(! A4!<)! A2 |!>(! G6!>)! | %21
w: |Al- les|Volk|
 B3 B B2 |!>(! A6!>)! |!mf!!<(! A4!<)! A2 | d3 d d2 |!>(! c4!>)! B2 | A4 z2 | %27
w: be- te dich|an|und *|* * lob-|sin- ge|dir!|
"^Chor"!p!!<(! A4!<)! A2 |!>(! G6!>)! |!<(! B3 B!<)! B2 |!>(! A6!>)! |!mf!!<(! A4!<)! A2 | %32
w: Al- les|Volk|be- te dich|an|und lob-|
 G2 A2 B2 | (A6 |!>(! G6)!>)! | F4 z2 ||[M:2/2]!f![Q:1/4=90]"^Tempo I"!<(! c6!<)! c2 | f4 d4 | %38
w: sing' dei- nem|Na-||men.|||
 c6!>(! B2!>)! | A6 z2 |!<(! B4 A2!<)! A2 | !>!d4 d2 B2 |!>(! A8!>)! | G4 z4 |!f! (c4 A2) F2 | %45
w: |Gott,|lasst sei- nen|Ruhm weit er-|schal-|len.|Jauchzt _ dem|
 !^!f4 e2 d2 | c8 | c4 z4 |!<(! d4!<)! e2 e2 | (f2 c2) d2 B2 |!>(! (A4 G4)!>)! | F4 F3 F | %52
w: Herrn, al- le|Lan-|de,|jauch- zet, lob-|singt _ sei- nem|Na- *|men. Jauch- zet|
!ff! f8- | f8- | !fermata!f8 ||[M:3/4][Q:1/4=90]"^Lebhaft"!f! F2 F2 c2 | A2 G2 F2 | E2 D2 C2 | %58
w: Gott,|_||a)  Jauch- zet, ihr|Him- mel, froh-|lo- cket ihr|
!<(! D2 E2!<)! F2 |!>(! G6!>)! | F4 z2 | F2 F2 c2 | A2 G2 F2 | E2 D2 C2 |!<(! D2 E2!<)! F2 | %65
w: Völ- ker der|Er-|de!|Jauch- zet, dem|Herrn, al- le|Lan- de, dass|groß sein Ruhm|
!>(! G6!>)! | F4 z2 |!f! c2 c2 c2 | d6 | A2 B2 c2 | c2 B2 A2 | G6 | C2 D2!<(! E2 | F2 G2!<)! A2 | %74
w: wer-|de!|Frie- de und|Freud'|wird uns ver-|kün- di- get|heut!|Jauch- zet Gott,|Him- mel und|
!>(! G6!>)! |"^Ende" F4 z2 |] %76
w: Er-|de!|
V:2
 F4 F4 | A4 F2 F2 | E8 | F4 x2 F2 | F4 F2 E2 | D3 D F2 G2 | F8 | E4 x4 | F6 G2 | F4 F2 F2 | %10
w: Jauch- zet||||||||||
 (F4 E2 G2) | F4 x4 | F4 F2 F2 | E4 E2 F2 | (G4 F4) | E4 E3 G | F4 !>!B3 A | G4 A3 F | E8 || %19
w: ||||||Gott, jauch- zet|Gott, jauch- zet|Gott!|
[M:3/4] F4 F2 | E6 | G3 G G2 | E6 | F4 F2 | F2 F2 F2 | E4 G2 | F4 x2 | F4 F2 | E6 | G3 G G2 | E6 | %31
w: ||||* lob-|sin- ge, *|||||||
 F4 F2 | F2 F2 G2 | (F6 | E6) | F4 x2 ||[M:2/2] F4 F4 | A4 F4 | E4 E4 | F6 x2 | F4 F2 F2 | F6 G2 | %42
w: |||||Lobt ihr|Völ- ker|un- sern|||Ruhm *|
 F8 | E4 x4 | F6 F2 | F4 F2 F2 | (F2 E2 A2 G2) | F2!f! (!>!F2 E2) F2 | F4 G2 G2 | F4 F2 G2 | %50
w: |||||* jauch- * zet,|||
 F4 E4 | F4 z4 | z4!ff! [FB]3 [FB] | [FB]4 [FB]4 | [FA]8 ||[M:3/4] C2 D2 C2 | F2 E2 D2 | %57
w: ||Jauch- zet|un- serm|Gott!|||
 C2 B,2 A,2 | B,2 B,2 C2 | (F2 ED E2) | F4 x2 | C2 F2 G2 | F2 E2 D2 | C2 B,2 A,2 | B,2 B,2 C2 | %65
w: ||||||||
 (D2 F2 E2) | C4 x2 | F2 E2 F2 | F6 | F2 F2 F2 | E2 DE F2 | E6 | C2 B,2 C2 | C2 DE F2 | %74
w: |||||||||
 (F2 ED E2) | C4 x2 |] %76
w: ||
V:3
 x8 | x8 | x8 | x8 | x8 | x8 | x8 | x8 | x8 | x8 | x8 | x8 | x8 | x8 | x8 | x8 | x8 | x8 | x8 || %19
[M:3/4] x6 | x6 | x6 | x6 | x6 | x6 | x6 | x6 | x6 | x6 | x6 | x6 | x6 | x6 | x6 | x6 | x6 || %36
[M:2/2] x8 | x8 | x8 | x8 | x8 | x8 | x8 | x8 | x8 | x8 | x8 | x8 | x8 | x8 | x8 | x8 | x4 d3 d | %53
 d4 d4 | c8 ||[M:3/4] x6 | x6 | x6 | x6 | x6 | x6 | x6 | x6 | x6 | x6 | x6 | x6 | x6 | x6 | x6 | %70
 x6 | x6 | x6 | x6 | x6 | x6 |] %76
V:4
!f! A6!<(! A2!<)! | c4 B2 B2 | (G4 c4) | c4 z2 c2 | !>!d4 c2 B2 |!<(! A3 A d2!<)! d2 | %6
w: Jauch- zet|Gott, al- le|Lan- *|de, lob-|sin- get zu|Eh- ren sei- nem|
!>(! (c4 A2 =B2)!>)! | c4 z4 |!f! (c2 B2 A2) G2 | A4 B2 B2 |!>(! (A4 G2 B2)!>)! | A4 (A2 G2) | %12
w: Na- * *|men!|Jauchzt _ _ dem|Herrn, al- le|Völ- * *|ker, lob- *|
 F4"^cresc." F2 F2 | G4 c2 c2 |!f!!>(! (c6!>)! =B2) | c4!f! c3 B | A4 !>!G3 F | E4 F3 A | %18
w: sin- get und|rüh- met ihn|herr- *|lich! Jauch- zet|Gott, jauch- zet|Gott, jauch- zet|
!>(! !fermata!c8!>)! ||[M:3/4]!p!!<(! c4!<)! c2 |!>(! c6!>)! | d3 d d2 |!>(! ^c6!>)! | %23
w: Gott!|Al- les|Volk|be- te dich|an|
!mf!!<(! d4!<)! =c2 | B2 B2 B2 |!>(! c4!>)! c2 | F4 z2 |!p!!<(! c4!<)! c2 |!>(! c6!>)! | %29
w: und lob-|sin- ge, lob-|sin- ge|dir!|Al- les|Volk|
!<(! d3 d!<)! d2 |!>(! ^c6!>)! |!mf!!<(! d4!<)! d2 | d2 c2 d2 | (c6- |!>(! c4 B2)!>)! | A4 z2 || %36
w: be- te dich|an|und lob-|sing' dei- nem|Na-||men.|
[M:2/2]!f!!<(! A6!<)! A2 | c4 B4 | G4!>(! c4!>)! | c6 z2 |!<(! d4 c2!<)! c2 | !>!B4 B2 d2 | %42
w: Lobt ihr|Völ- ker|un- sern|Gott,|lasst sei- nen|Ruhm weit er-|
!>(! (c4 A2 =B2)!>)! | c4 z4 |!f! c6 A2 | d4 c2 B2 | (A2 G2 c2 B2) | A2!f! (!>!A2 B2) c2 | %48
w: schal- * *|len.|Jauchzt dem|Herrn, al- le|Lan- * * *|de, jauch- * zet,|
!<(! (B2 d2)!<)! c2 c2 | c4 B2 d2 |!>(! (c4 B4)!>)! | A4 z4 | z4!ff! [Bd]3 [Bd] | [Bd]4 [FB]4 | %54
w: jauch- * zet, lob-|singt sei- nem|Na- *|men.|Jauch- zet|un- serm|
 !fermata![Ac]8 ||[M:3/4]!f! A2 A2 G2 | c2 c2 A2 | A2 F2 F2 |!<(! F2 G2!<)! F2 |!>(! (d4!>)! cB) | %60
w: Gott!|b)   Lo- be den|Her- ren, den|mäch- ti- gen|Kö- nig der|Eh- * *|
 A4 z2 | A2 c2 c2 | c2 B2 A2 | A2 F2 F2 |!<(! F2 G2!<)! F2 |!>(! (F2 d2!>)! cB) | A4 z2 | %67
w: ren,|mei- ne ge-|lie- be- te|See- le, das|ist mein Be-|geh- * * *|ren.|
!f! A2 B2 c2 | B6 | c2 d2 c2 | G2 B2 c2 | c6 | A2 F2!<(! G2 | A2 B2!<)! c2 |!>(! (c4 B2)!>)! | %75
w: Kom- met zu|Hauf'!|Psal- ter und|Har- fe wacht|auf!|Las- set den|Lob- ge- sang|hö- *|
 A4 z2 |] %76
w: ren!|
V:5
!f! F,4!<(! F,4!<)! | F,4 B,,2 B,,2 | C,8 | F,4 z2 F,2 | !>!B,,4 F,2 C,2 | %5
w: |||||
!<(! D,3 D, B,,2!<)! B,,2 |!>(! C,8!>)! | C,4!f! (C2 B,2) | (A,2 G,2 F,2) E,2 | D,4 B,,2 B,,2 | %10
w: ||* Jauchzt _|Gott, _ _ _|Herrn, al- le|
!>(! C,8!>)! | F,4 (F,2 E,2) | D,6"^cresc." D,2 | C,4 A,2 A,2 |!f!!>(! (G,4!>)! G,,4) | C,8- | %16
w: Völ-|ker, lob- *|singt und|rüh- met ihn|herr- *|lich!|
 C,4 !>!C,3 C, | C,4 C,4 |!>(! !fermata!C,8!>)! ||[M:3/4]!p!!<(! F,4!<)! F,2 |!>(! C,6!>)! | %21
w: _ jauch- zet|Gott, jauchzt|Gott!|||
 G,,3 G,, G,,2 |!>(! A,,6!>)! | z6 | z6 | z6 | z6 |!p!!<(! F,4!<)! F,2 |!>(! C,6!>)! | %29
w: ||||||||
!<(! G,,3 G,,!<)! G,,2 |!>(! A,,6!>)! |!mf!!<(! D,4!<)! C,2 | B,,2 A,,2 G,,2 | C,6- |!>(! C,6!>)! | %35
w: ||||||
 F,4 z2 ||[M:2/2]!f!!<(! F,4!<)! F,4 | F,4 B,,4 | C,4!>(! C,4!>)! | F,6 z2 |!<(! B,,4 F,2!<)! F,2 | %41
w: ||||||
 !>!B,,6 B,,2 |!>(! C,8!>)! | C,4!f! (C2 B,2) | A,4 F,4 | B,,4 B,,2 B,,2 | C,8 | %47
w: Ruhm er-|schal-|len. Jauchzt _|Gott, dem|Herrn, al- le|Lan-|
 F,2!f! (!>!F,2 G,2) A,2 |!<(! B,4!<)! B,2 B,2 | A,4 B,2 B,,2 |!>(! C,8!>)! | F,4 z4 | %52
w: de, * * *|||||
 z4!ff! [B,,F,]3 [B,,F,] | B,,4 [B,,D,]4 | !fermata![F,,F,]8 ||[M:3/4]!f! F,2 D,2 E,2 | %56
w: ||||
 F,2 C,2 D,2 | A,,2 B,,2 F,2 |!<(! B,,2 G,,2!<)! A,,2 |!>(! B,,4!>)! C,2 | F,4 z2 | F,2 A,2 E,2 | %62
w: ||||||
 F,2 C,2 D,2 | A,,2 B,,2 F,2 |!<(! B,,2 G,,2!<)! A,,2 |!>(! B,,4!>)! C,2 | F,4 z2 | %67
w: |||||
!f! F,2 G,2 A,2 | B,6 | F,2 D,2 A,,2 | C,2 G,2 F,2 | C,6 | F,2 B,,2!<(! B,,2 | A,,2 G,,2!<)! F,,2 | %74
w: |||||||
!>(! C,6!>)! | F,4 z2 |] %76
w: ||

